X: 23769
T: Little Diamond, The
R: polka
M: 2/4
K: Dmajor
A>B AF|DE FG|A>B AF|GF E2|
DEFG|ABcd|ed ce|1 d2d2:|2 d2d>e||
|:fd ge|fd cB|Ad cd/e/|fee2|
fd ge|fe dc|Ag ec|1 d2dd/e/:|2 d2d2||

